Sources/FrostedUI/Resources/Icons.xcassets/item12.imageset/item-12.svg

<svg
  width="12"
  height="12"
  viewBox="0 0 12 12"
  fill="none"
  xmlns="http://www.w3.org/2000/svg"
  data-fui-icon="true"
>
  <g
    clip-path="url(#clip0_882_590)"
    stroke="currentColor"
    stroke-width="1.5"
    stroke-linecap="round"
    stroke-linejoin="round"
  >
    <path
      d="M1.77529 8.89361L5.27515 11.045C5.49317 11.179 5.74408 11.25 6 11.25 6.25592 11.25 6.50683 11.179 6.72485 11.045L10.2247 8.89361C10.5511 8.69296 10.75 8.33726 10.75 7.9541V4.0459C10.75 3.66275 10.5511 3.30705 10.2247 3.10639L6.72485.954972C6.50683.820952 6.25592.75 6 .75 5.74408.75 5.49318.820951 5.27516.954972L1.77529 3.10639C1.44888 3.30705 1.25 3.66275 1.25 4.0459V7.9541C1.25 8.33726 1.44888 8.69296 1.77529 8.89361zM5.99658 5.95554V8.93249M6.00012 5.95556L8.51335 4.5954M5.99658 5.95556L3.48336 4.5954"
    />
  </g>
  <defs>
    <clipPath id="clip0_882_590">
      <path fill="currentColor" d="M0 0H12V12H0z" />
    </clipPath>
  </defs>
</svg>

<svg xmlns="http://www.w3.org/2000/svg" width="12" height="12" fill="none" data-fui-icon="true" viewBox="0 0 12 12"><g stroke="currentColor" stroke-linecap="round" stroke-linejoin="round" stroke-width="1.5" clip-path="url(#a)"><path d="m1.775 8.894 3.5 2.151a1.38 1.38 0 0 0 1.45 0l3.5-2.151c.326-.201.525-.557.525-.94V4.046c0-.383-.199-.739-.525-.94L6.725.955a1.38 1.38 0 0 0-1.45 0l-3.5 2.151c-.326.201-.525.557-.525.94v3.908c0 .383.199.739.525.94m4.222-2.938v2.976M6 5.956l2.513-1.36m-2.516 1.36-2.514-1.36"/></g><defs><clipPath id="a"><path fill="currentColor" d="M0 0h12v12H0z"/></clipPath></defs></svg>
